images/FortKnoxster.svg

<svg height="250" viewBox="0 0 250 250" width="250" xmlns="http://www.w3.org/2000/svg" xmlns:xlink="http://www.w3.org/1999/xlink"><clipPath id="a"><path d="m.136719 0h249.820312v250h-249.820312zm0 0"/></clipPath><g clip-path="url(#a)"><path d="m125.050781 250c68.984375 0 124.910157-55.960938 124.910157-125 0-69.035156-55.925782-125-124.910157-125-68.988281 0-124.914062 55.964844-124.914062 125 0 69.039062 55.925781 125 124.914062 125zm0 0" fill="#3772ff"/></g><g fill="#fff"><path d="m85.28125 100.324219c-2.214844 9.246093-3.886719 17.207031-5.144531 23.589843-2.6875 13.613282-3.089844 18.160157-3.050781 22.917969v.625c.046874 4.769531.394531 14.554688 4.667968 25.433594 1.480469 3.773437 3.324219 7.398437 5.5 10.820313 6.46875 10.1875 14.546875 16.601562 19.257813 19.878906 5.675781-.863282 15.75-3.054688 26.066406-9.363282 3.453125-2.097656 6.699219-4.527343 9.683594-7.253906 8.519531-7.792968 13.148437-16.328125 15.320312-20.636718.132813-.25.253907-.472657.355469-.6875 2.132812-4.253907 3.773438-8.511719 7.363281-21.917969 1.699219-6.332031 3.714844-14.320313 5.824219-23.695313.671875-3.007812 1.363281-6.160156 2.046875-9.445312l-10.675781-13.132813-3.328125-4.09375-51.355469-11.945312-4.777344 2.199219-15.359375 7.078124c-.851562 3.339844-1.652343 6.554688-2.394531 9.628907zm27.386719 23.492187c.488281-2.089844 1.527343-4.015625 3.003906-5.578125 1.476563-1.558593 3.339844-2.695312 5.402344-3.296875 2.0625-.601562 4.246093-.644531 6.328125-.121094 2.085937.523438 3.992187 1.589844 5.527344 3.09375 1.535156 1.503907 2.640624 3.386719 3.207031 5.460938.566406 2.074219.574219 4.257812.019531 6.335938-.558594 2.074218-1.65625 3.964843-3.183594 5.476562-1.523437 1.511719-3.425781 2.589844-5.507812 3.121094l-5.171875 22.265625-10.914063-2.539063 5.175782-22.277344c-1.675782-1.445312-2.925782-3.324218-3.609376-5.425781-.683593-2.105469-.78125-4.359375-.277343-6.515625zm0 0"/><path d="m92.46875 55.933594 5.074219 1.183594-2.304688 9.933593 4.945313-2.109375 3.179687-13.679687 10.933594-4.839844 14.886719 3.464844-2.003906 8.632812 24.535156 5.707031 2.003906-8.632812 14.890625 3.464844 7.847656 9.207031-3.175781 13.675781 3.511719 4.078125 2.308593-9.933593 5.074219 1.183593 6.984375 8.316407-6.015625 25.894531-22.550781-26.53125-54.3125-12.632813-31.765625 13.894532 6.015625-25.894532zm0 0"/></g></svg>

<svg xmlns="http://www.w3.org/2000/svg" xmlns:xlink="http://www.w3.org/1999/xlink" width="250px" height="250px" viewBox="0 0 250 250" version="1.1">
<defs>
<clipPath id="clip1">
  <path d="M 0.136719 0 L 249.957031 0 L 249.957031 250 L 0.136719 250 Z M 0.136719 0 "/>
</clipPath>
</defs>
<g id="surface1">
<g clip-path="url(#clip1)" clip-rule="nonzero">
<path style=" stroke:none;fill-rule:nonzero;fill:rgb(21.568628%,44.705883%,100%);fill-opacity:1;" d="M 125.050781 250 C 194.035156 250 249.960938 194.039062 249.960938 125 C 249.960938 55.964844 194.035156 0 125.050781 0 C 56.0625 0 0.136719 55.964844 0.136719 125 C 0.136719 194.039062 56.0625 250 125.050781 250 Z M 125.050781 250 "/>
</g>
<path style=" stroke:none;fill-rule:nonzero;fill:rgb(100%,100%,100%);fill-opacity:1;" d="M 85.28125 100.324219 C 83.066406 109.570312 81.394531 117.53125 80.136719 123.914062 C 77.449219 137.527344 77.046875 142.074219 77.085938 146.832031 C 77.085938 147.027344 77.085938 147.226562 77.085938 147.457031 C 77.132812 152.226562 77.480469 162.011719 81.753906 172.890625 C 83.234375 176.664062 85.078125 180.289062 87.253906 183.710938 C 93.722656 193.898438 101.800781 200.3125 106.511719 203.589844 C 112.1875 202.726562 122.261719 200.535156 132.578125 194.226562 C 136.03125 192.128906 139.277344 189.699219 142.261719 186.972656 C 150.78125 179.179688 155.410156 170.644531 157.582031 166.335938 C 157.714844 166.085938 157.835938 165.863281 157.9375 165.648438 C 160.070312 161.394531 161.710938 157.136719 165.300781 143.730469 C 167 137.398438 169.015625 129.410156 171.125 120.035156 C 171.796875 117.027344 172.488281 113.875 173.171875 110.589844 L 162.496094 97.457031 L 159.167969 93.363281 L 107.8125 81.417969 L 103.035156 83.617188 L 87.675781 90.695312 C 86.824219 94.035156 86.023438 97.25 85.28125 100.324219 Z M 112.667969 123.816406 C 113.15625 121.726562 114.195312 119.800781 115.671875 118.238281 C 117.148438 116.679688 119.011719 115.542969 121.074219 114.941406 C 123.136719 114.339844 125.320312 114.296875 127.402344 114.820312 C 129.488281 115.34375 131.394531 116.410156 132.929688 117.914062 C 134.464844 119.417969 135.570312 121.300781 136.136719 123.375 C 136.703125 125.449219 136.710938 127.632812 136.15625 129.710938 C 135.597656 131.785156 134.5 133.675781 132.972656 135.1875 C 131.449219 136.699219 129.546875 137.777344 127.464844 138.308594 L 122.292969 160.574219 L 111.378906 158.035156 L 116.554688 135.757812 C 114.878906 134.3125 113.628906 132.433594 112.945312 130.332031 C 112.261719 128.226562 112.164062 125.972656 112.667969 123.816406 Z M 112.667969 123.816406 "/>
<path style=" stroke:none;fill-rule:nonzero;fill:rgb(100%,100%,100%);fill-opacity:1;" d="M 92.46875 55.933594 L 97.542969 57.117188 L 95.238281 67.050781 L 100.183594 64.941406 L 103.363281 51.261719 L 114.296875 46.421875 L 129.183594 49.886719 L 127.179688 58.519531 L 151.714844 64.226562 L 153.71875 55.59375 L 168.609375 59.058594 L 176.457031 68.265625 L 173.28125 81.941406 L 176.792969 86.019531 L 179.101562 76.085938 L 184.175781 77.269531 L 191.160156 85.585938 L 185.144531 111.480469 L 162.59375 84.949219 L 108.28125 72.316406 L 76.515625 86.210938 L 82.53125 60.316406 Z M 92.46875 55.933594 "/>
</g>
</svg>
